assets/materialdesignicons/original.svg

<svg viewBox="0 0 24 24" xmlns="http://www.w3.org/2000/svg" fill="#2196F3"><path d="m0 0h7.2v2.4h9.6v-2.4h7.2v7.2h-2.4v9.6h2.4v7.2h-7.2v-2.4h-9.6v2.4h-7.2v-7.2h2.4v-9.6h-2.4zm16.8 7.2v-2.4h-9.6v2.4h-2.4v9.6h2.4v2.4h9.6v-2.4h2.4v-9.6m-16.8-4.8v2.4h2.4v-2.4m14.4 0v2.4h2.4v-2.4m-19.2 16.8v2.4h2.4v-2.4m14.4 0v2.4h2.4v-2.4z"/></svg>

<svg xmlns="http://www.w3.org/2000/svg" fill="#2196f3" viewBox="0 0 24 24"><path d="M0 0h7.2v2.4h9.6V0H24v7.2h-2.4v9.6H24V24h-7.2v-2.4H7.2V24H0v-7.2h2.4V7.2H0zm16.8 7.2V4.8H7.2v2.4H4.8v9.6h2.4v2.4h9.6v-2.4h2.4V7.2M2.4 2.4v2.4h2.4V2.4m14.4 0v2.4h2.4V2.4M2.4 19.2v2.4h2.4v-2.4m14.4 0v2.4h2.4v-2.4z"/></svg>
